images/site-logo.svg

<svg width="177" height="50" viewBox="0 0 177 50" fill="none" xmlns="http://www.w3.org/2000/svg">
<path d="M3.87168 26.7609H10.4051V23.2391H3.87168V19.5217H11.857V16H0V33.6087H3.87168V26.7609Z" fill="#151515"/>
<path d="M13.1832 27.0054V33.6087H16.8129V27.0054C16.8129 24.9755 18.4342 23.337 20.4426 23.337V20.0109H19.9586C15.9418 20.0109 13.1832 23.1413 13.1832 27.0054Z" fill="#151515"/>
<path d="M28.5574 20.0109C24.5406 20.0109 21.298 23.1413 21.298 27.0054C21.298 30.8696 24.5406 34 28.5574 34C31.7516 34 34.4618 32.019 35.4297 29.2554H31.4128C30.7595 30.1114 29.7189 30.6739 28.5574 30.6739C26.9846 30.6739 25.6779 29.6712 25.1455 28.2772H35.6959C35.7685 27.8614 35.8169 27.4457 35.8169 27.0054C35.8169 23.1413 32.5743 20.0109 28.5574 20.0109ZM25.1455 25.7337C25.6779 24.3397 26.9846 23.337 28.5574 23.337C30.1061 23.337 31.437 24.3397 31.9694 25.7337H25.1455Z" fill="#151515"/>
<path d="M43.7453 25.8315C42.3418 25.6603 40.7447 25.0489 40.7447 24.2663C40.7447 23.3859 41.4949 23.0924 42.2934 23.0924C43.0919 23.0924 43.8421 23.3859 43.8421 24.5109H47.4718C47.4718 21.6739 45.1004 20.0109 42.2934 20.0109C39.4864 20.0109 37.115 21.6739 37.115 24.3641C37.115 26.4429 39.559 28.0082 42.0998 28.3261C43.1887 28.4728 43.9873 29.0353 43.9873 29.6467C43.9873 30.5027 43.0919 30.9185 42.2934 30.9185C41.4949 30.9185 40.5995 30.625 40.5995 29.5H36.9698C36.9698 32.337 39.4864 34 42.2934 34C45.1004 34 47.617 32.337 47.617 29.5C47.617 27.2745 45.6569 26.0516 43.7453 25.8315Z" fill="#151515"/>
<path d="M56.2821 20.0109C55.0722 20.0109 53.9833 20.4511 53.1364 21.1848V16H49.5067V33.6087H53.1364V26.981C53.1364 24.9755 54.2737 23.337 56.2821 23.337C58.2906 23.337 59.4279 24.9755 59.4279 27.0054V33.6087H63.0576V27.0054C63.0576 23.1413 60.299 20.0109 56.2821 20.0109Z" fill="#151515"/>
<path d="M72.0175 20.0109C68.0006 20.0109 65.242 23.1413 65.242 27.0054V33.6087H68.8717V27.0054C68.8717 24.9755 70.009 23.337 72.0175 23.337C74.0259 23.337 75.1632 24.9755 75.1632 27.0054V33.6087H78.7929V27.0054C78.7929 23.1413 76.0343 20.0109 72.0175 20.0109Z" fill="#151515"/>
<path d="M87.6346 20.0109C83.6178 20.0109 80.3752 23.1413 80.3752 27.0054C80.3752 30.8696 83.6178 34 87.6346 34C90.8288 34 93.539 32.019 94.5069 29.2554H90.49C89.8367 30.1114 88.7962 30.6739 87.6346 30.6739C86.0618 30.6739 84.7551 29.6712 84.2227 28.2772H94.7731C94.8457 27.8614 94.8941 27.4457 94.8941 27.0054C94.8941 23.1413 91.6515 20.0109 87.6346 20.0109ZM84.2227 25.7337C84.7551 24.3397 86.0618 23.337 87.6346 23.337C89.1833 23.337 90.5142 24.3397 91.0466 25.7337H84.2227Z" fill="#151515"/>
<path d="M102.822 25.8315C101.419 25.6603 99.8219 25.0489 99.8219 24.2663C99.8219 23.3859 100.572 23.0924 101.371 23.0924C102.169 23.0924 102.919 23.3859 102.919 24.5109H106.549C106.549 21.6739 104.178 20.0109 101.371 20.0109C98.5636 20.0109 96.1922 21.6739 96.1922 24.3641C96.1922 26.4429 98.6362 28.0082 101.177 28.3261C102.266 28.4728 103.064 29.0353 103.064 29.6467C103.064 30.5027 102.169 30.9185 101.371 30.9185C100.572 30.9185 99.6768 30.625 99.6768 29.5H96.047C96.047 32.337 98.5636 34 101.371 34C104.178 34 106.694 32.337 106.694 29.5C106.694 27.2745 104.734 26.0516 102.822 25.8315Z" fill="#151515"/>
<path d="M115.117 20.0109C111.1 20.0109 107.858 23.1413 107.858 27.0054C107.858 30.8696 111.1 34 115.117 34C118.311 34 121.022 32.019 121.99 29.2554H117.973C117.319 30.1114 116.279 30.6739 115.117 30.6739C113.544 30.6739 112.238 29.6712 111.705 28.2772H122.256C122.328 27.8614 122.377 27.4457 122.377 27.0054C122.377 23.1413 119.134 20.0109 115.117 20.0109ZM111.705 25.7337C112.238 24.3397 113.544 23.337 115.117 23.337C116.666 23.337 117.997 24.3397 118.529 25.7337H111.705Z" fill="#151515"/>
<path d="M130.596 23.337C131.999 23.337 133.185 24.1196 133.814 25.2935H137.637C136.839 22.2609 133.983 20.0109 130.596 20.0109C126.579 20.0109 123.336 23.1413 123.336 27.0054C123.336 30.8696 126.579 34 130.596 34C133.959 34 136.766 31.7989 137.589 28.8152H133.693C133.088 29.9158 131.951 30.6739 130.596 30.6739C128.587 30.6739 126.966 29.0353 126.966 27.0054C126.966 24.9755 128.587 23.337 130.596 23.337Z" fill="#151515"/>
<path d="M152.929 27.0054C152.929 23.1413 149.711 20.0109 145.718 20.0109C141.726 20.0109 138.507 23.1413 138.507 27.0054C138.507 30.8696 141.726 34 145.718 34C149.711 34 152.929 30.8696 152.929 27.0054ZM149.3 27.0054C149.3 29.0353 147.702 30.6739 145.718 30.6739C143.734 30.6739 142.137 29.0353 142.137 27.0054C142.137 24.9755 143.734 23.337 145.718 23.337C147.702 23.337 149.3 24.9755 149.3 27.0054Z" fill="#151515"/>
<path d="M170.467 20.0109C168.579 20.0109 166.885 20.8668 165.748 22.2364C164.611 20.8668 162.917 20.0109 161.029 20.0109C157.012 20.0109 154.496 23.1413 154.496 27.0054V33.6087H158.126V27.0054C158.126 24.9755 159.021 23.337 161.029 23.337C163.038 23.337 163.933 24.9755 163.933 27.0054V33.6087H167.563V27.0054C167.563 24.9755 168.458 23.337 170.467 23.337C172.475 23.337 173.37 24.9755 173.37 27.0054V33.6087H177V27.0054C177 23.1413 174.483 20.0109 170.467 20.0109Z" fill="#151515"/>
</svg>

<svg width="177" height="50" fill="none" xmlns="http://www.w3.org/2000/svg"><path d="M3.872 26.76h6.533v-3.52H3.872v-3.718h7.985V16H0v17.609h3.872V26.76ZM13.183 27.005v6.604h3.63v-6.604c0-2.03 1.621-3.668 3.63-3.668v-3.326h-.484c-4.017 0-6.776 3.13-6.776 6.994ZM28.557 20.01c-4.016 0-7.259 3.131-7.259 6.995 0 3.865 3.243 6.995 7.26 6.995 3.194 0 5.904-1.981 6.872-4.745h-4.017a3.599 3.599 0 0 1-2.856 1.419c-1.572 0-2.88-1.003-3.412-2.397h10.55c.074-.416.122-.831.122-1.272 0-3.864-3.243-6.994-7.26-6.994Zm-3.412 5.724c.533-1.394 1.84-2.397 3.412-2.397 1.55 0 2.88 1.003 3.412 2.397h-6.824ZM43.745 25.831c-1.403-.17-3-.782-3-1.565 0-.88.75-1.174 1.548-1.174.799 0 1.55.294 1.55 1.419h3.629c0-2.837-2.372-4.5-5.179-4.5-2.807 0-5.178 1.663-5.178 4.353 0 2.079 2.444 3.644 4.985 3.962 1.089.147 1.887.71 1.887 1.32 0 .857-.895 1.273-1.694 1.273-.798 0-1.694-.294-1.694-1.419h-3.63c0 2.837 2.517 4.5 5.324 4.5s5.324-1.663 5.324-4.5c0-2.226-1.96-3.448-3.872-3.669ZM56.282 20.01c-1.21 0-2.299.441-3.146 1.175V16h-3.63v17.609h3.63V26.98c0-2.006 1.138-3.644 3.146-3.644 2.009 0 3.146 1.639 3.146 3.668v6.604h3.63v-6.604c0-3.864-2.759-6.994-6.776-6.994ZM72.017 20.01c-4.016 0-6.775 3.131-6.775 6.995v6.604h3.63v-6.604c0-2.03 1.137-3.668 3.145-3.668 2.009 0 3.146 1.639 3.146 3.668v6.604h3.63v-6.604c0-3.864-2.759-6.994-6.776-6.994ZM87.635 20.01c-4.017 0-7.26 3.131-7.26 6.995 0 3.865 3.243 6.995 7.26 6.995 3.194 0 5.904-1.981 6.872-4.745H90.49a3.598 3.598 0 0 1-2.855 1.419c-1.573 0-2.88-1.003-3.412-2.397h10.55c.073-.416.121-.831.121-1.272 0-3.864-3.243-6.994-7.26-6.994Zm-3.412 5.724c.532-1.394 1.839-2.397 3.412-2.397 1.548 0 2.88 1.003 3.412 2.397h-6.824ZM102.822 25.831c-1.403-.17-3-.782-3-1.565 0-.88.75-1.174 1.549-1.174.798 0 1.548.294 1.548 1.419h3.63c0-2.837-2.371-4.5-5.178-4.5s-5.179 1.663-5.179 4.353c0 2.079 2.444 3.644 4.985 3.962 1.089.147 1.887.71 1.887 1.32 0 .857-.895 1.273-1.693 1.273-.799 0-1.694-.294-1.694-1.419h-3.63c0 2.837 2.517 4.5 5.324 4.5s5.323-1.663 5.323-4.5c0-2.226-1.96-3.448-3.872-3.669ZM115.117 20.01c-4.017 0-7.259 3.131-7.259 6.995 0 3.865 3.242 6.995 7.259 6.995 3.194 0 5.905-1.981 6.873-4.745h-4.017a3.6 3.6 0 0 1-2.856 1.419c-1.573 0-2.879-1.003-3.412-2.397h10.551c.072-.416.121-.831.121-1.272 0-3.864-3.243-6.994-7.26-6.994Zm-3.412 5.724c.533-1.394 1.839-2.397 3.412-2.397 1.549 0 2.88 1.003 3.412 2.397h-6.824ZM130.596 23.337c1.403 0 2.589.783 3.218 1.957h3.823c-.798-3.033-3.654-5.283-7.041-5.283-4.017 0-7.26 3.13-7.26 6.994 0 3.865 3.243 6.995 7.26 6.995 3.363 0 6.17-2.201 6.993-5.185h-3.896c-.605 1.1-1.742 1.859-3.097 1.859-2.009 0-3.63-1.639-3.63-3.669 0-2.03 1.621-3.668 3.63-3.668ZM152.929 27.005c0-3.864-3.218-6.994-7.211-6.994-3.992 0-7.211 3.13-7.211 6.994 0 3.865 3.219 6.995 7.211 6.995 3.993 0 7.211-3.13 7.211-6.995Zm-3.629 0c0 2.03-1.598 3.669-3.582 3.669-1.984 0-3.581-1.639-3.581-3.669 0-2.03 1.597-3.668 3.581-3.668s3.582 1.639 3.582 3.668ZM170.467 20.01a6.111 6.111 0 0 0-4.719 2.226 6.111 6.111 0 0 0-4.719-2.225c-4.017 0-6.533 3.13-6.533 6.994v6.604h3.63v-6.604c0-2.03.895-3.668 2.903-3.668 2.009 0 2.904 1.639 2.904 3.668v6.604h3.63v-6.604c0-2.03.895-3.668 2.904-3.668 2.008 0 2.903 1.639 2.903 3.668v6.604H177v-6.604c0-3.864-2.517-6.994-6.533-6.994Z" fill="#151515"/></svg>
